X:297
T:Ladies Of London. (p)1688.PLFD.297
M:6/4
L:1/4
Q:3/4=110
S:Playford, Dancing Master,7th Ed,2nd.Supp,1688.
O:England
H:1688.
Z:Chris Partington.
K:Bb
F|Bcdedc|dcBf2d|efgfgd|c3c2F|
Bcdedc|dcBb2a|gafefg|g3f2:|
|:f|fgab2a|gfed2b|abg^fga|a3g3|
ffbbfg|fgdc2d|B2ffdg|c3B2:|
